!!!COM: Anon.
!!!OTL: Buffalo Society Song (b)
!!!MPN: Maisuiaksis [Holding Eagle]
!!!ODT: <1918//
!!!MLC: Fort Berthold Reservation, North Dakota, United States of America
!! Song was recorded during either the summer of 1912, 1915, or 1918.
!!!AGN: monody
!!!AST: Mandan and Hidatsa Men's Buffalo Society
!!!AMT: irregular
!!!RWG: Transcribed pitches, durations, and meters are only approximate.
!! Drum Tempo: MM116
!! Drum-rhythm: (4 4 4 4)
**kern
*ICvox
*Imale
*clefF4
*k[b-e-a-d-]
*M3/4
*MM116
=1-
8A-
8A-
4A-
4A-;
=2
16e-
8e-
16e-
4d-
4e-
=3
4e-
(12e-
12e-
12e-)
4e-
*M2/4
=4
8.A-
16A-
8.B-
16B-
=5
2A-
=6
8.c
16c
4c
=7
8.A-
16A-
8.B-
16B-
*M3/4
=8
2A-
8.A-
16A-
*M2/4
=9
4A-
8.A-
16A-
*M3/4
=10
2A-
8.A-
16A-
*M2/4
=11
4A-
8.A-
16A-
=12
2A-
=13
8A-
8A-
4A-
4A-;
=14
16e-
8e-
16e-
4d-
4e-
=15
4e-
(12e-
12e-
12e-)
4e-
*M2/4
=16
8.A-
16A-
8.B-
16B-
=17
2A-
=18
8.c
16c
4c
=19
8.A-
16A-
8.B-
16B-
*M3/4
=20
2A-
8.A-
16A-
*M2/4
=21
4A-
8.A-
16A-
*M3/4
=22
2A-
8.A-
16A-
*M2/4
=23
4A-
8.A-
16A-
=24
2A-
==
*-
!!!CNT: Hidatsa
!!!TXO: Hidatsa
!!!OCY: United States
!!!OCL: Frances Densmore
!!!YOR: Frances Densmore, "Mandan and Hidatsa Music",
!!!YOR: Bulletin 80, page 139, No. 70
!!!PPR: Smithsonian Institution, Bureau of American Ethnology
!!!PPR: Government Printing Office
!!!PDT: 1923
!!!PPP: Washington, DC, United States of America
!!!YEC: Electronic Copyright 2000 David Huron
!!!YER: August 2000
!!!YEN: United States of America
!!!ENC: David Huron
!!!RDT: August 17, 2000
!!!EEV: Release 1.0
!!!AIN: tom, vox
